svgs/duotone/memory.svg

<svg xmlns="http://www.w3.org/2000/svg" viewBox="0 0 576 512"><!-- Font Awesome Pro 6.0.0-alpha2 by @fontawesome - https://fontawesome.com License - https://fontawesome.com/license (Commercial License) --><defs><style>.fa-secondary{opacity:.4}</style></defs><path d="M576 146.938V112C576 85.492 554.51 64 528 64H48C21.49 64 0 85.492 0 112V146.938C18.6 153.547 32 171.133 32 192S18.6 230.453 0 237.062V320H576V237.062C557.4 230.453 544 212.867 544 192S557.4 153.547 576 146.938ZM192 240C192 248.836 184.838 256 176 256H144C135.164 256 128 248.836 128 240V144C128 135.164 135.164 128 144 128H176C184.838 128 192 135.164 192 144V240ZM320 240C320 248.836 312.838 256 304 256H272C263.164 256 256 248.836 256 240V144C256 135.164 263.164 128 272 128H304C312.838 128 320 135.164 320 144V240ZM448 240C448 248.836 440.838 256 432 256H400C391.164 256 384 248.836 384 240V144C384 135.164 391.164 128 400 128H432C440.838 128 448 135.164 448 144V240Z" class="fa-secondary"/><path d="M400 256H432C440.838 256 448 248.836 448 240V144C448 135.164 440.838 128 432 128H400C391.164 128 384 135.164 384 144V240C384 248.836 391.164 256 400 256ZM272 256H304C312.838 256 320 248.836 320 240V144C320 135.164 312.838 128 304 128H272C263.164 128 256 135.164 256 144V240C256 248.836 263.164 256 272 256ZM144 256H176C184.838 256 192 248.836 192 240V144C192 135.164 184.838 128 176 128H144C135.164 128 128 135.164 128 144V240C128 248.836 135.164 256 144 256ZM0 320V448H80V416C80 407.164 87.164 400 96 400C104.838 400 112 407.164 112 416V448H208V416C208 407.164 215.164 400 224 400C232.838 400 240 407.164 240 416V448H336V416C336 407.164 343.164 400 352 400C360.838 400 368 407.164 368 416V448H464V416C464 407.164 471.164 400 480 400C488.838 400 496 407.164 496 416V448H576V320H0Z" class="fa-primary"/></svg>

<svg xmlns="http://www.w3.org/2000/svg" viewBox="0 0 576 512"><!--! Font Awesome Pro 6.0.0-alpha3 by @fontawesome - https://fontawesome.com License - https://fontawesome.com/license (Commercial License) --><defs><style>.fa-secondary{opacity:.4}</style></defs><path class="fa-primary" d="M400 256h32C440.8 256 448 248.8 448 240v-96C448 135.2 440.8 128 432 128h-32C391.2 128 384 135.2 384 144v96C384 248.8 391.2 256 400 256zM272 256h32C312.8 256 320 248.8 320 240v-96C320 135.2 312.8 128 304 128h-32C263.2 128 256 135.2 256 144v96C256 248.8 263.2 256 272 256zM144 256h32C184.8 256 192 248.8 192 240v-96C192 135.2 184.8 128 176 128h-32C135.2 128 128 135.2 128 144v96C128 248.8 135.2 256 144 256zM0 320v128h80v-32c0-8.836 7.164-16 16-16c8.838 0 16 7.164 16 16v32h96v-32c0-8.836 7.164-16 16-16c8.838 0 16 7.164 16 16v32h96v-32c0-8.836 7.164-16 16-16c8.838 0 16 7.164 16 16v32h96v-32c0-8.836 7.164-16 16-16c8.838 0 16 7.164 16 16v32H576v-128H0z"/><path class="fa-secondary" d="M576 146.9V112C576 85.49 554.5 64 528 64h-480C21.49 64 0 85.49 0 112v34.94C18.6 153.5 32 171.1 32 192S18.6 230.5 0 237.1V320h576V237.1C557.4 230.5 544 212.9 544 192S557.4 153.5 576 146.9zM192 240C192 248.8 184.8 256 176 256h-32C135.2 256 128 248.8 128 240v-96C128 135.2 135.2 128 144 128h32C184.8 128 192 135.2 192 144V240zM320 240C320 248.8 312.8 256 304 256h-32C263.2 256 256 248.8 256 240v-96C256 135.2 263.2 128 272 128h32C312.8 128 320 135.2 320 144V240zM448 240C448 248.8 440.8 256 432 256h-32C391.2 256 384 248.8 384 240v-96C384 135.2 391.2 128 400 128h32C440.8 128 448 135.2 448 144V240z"/></svg>
